ui/icon/svg/stats-chart-sharp.svg

<svg viewBox="0 0 512 512" xmlns="http://www.w3.org/2000/svg"><path d="m128 496h-80v-192h80zm224 0h-80v-288h80zm112 0h-80v-400h80zm-224 0h-80v-480h80z"/></svg>

<svg xmlns="http://www.w3.org/2000/svg" class="ionicon" viewBox="0 0 512 512"><title>Stats Chart</title><path d="M128 496H48V304h80zM352 496h-80V208h80zM464 496h-80V96h80zM240 496h-80V16h80z"/></svg>
